!!!!SEGMENT: pl-wnifc--6730-n--001_sowinski-wojciech--chants-religieux-de-la-pologne-op-93-fragment-d-un-hymne-a-la-sainte-vierge-mere-de-dieu-prie-pour-nous.krn
!!!cenid: 18xx:4015
!!!COM: Sowiński, Wojciech
!!!COM-rismID: pe30008543
!!!CDT: ~1803-1880/03/05
!!!CNT:
!!!OTL: Chants religieux de la Pologne op. 93
!!!PDT: 1830
!!!AGN:
!!!SMS-siglum: PL-Wnifc
!!!SMS-shelfmark: 6730/n
!!!SMS-shelfwork: 001 W
!!!SMS-variant:
!!!SMS-altvar:
!!!NIFC-rismSourceID: 1001138221
!!!NIFC-rismChildID: 1001138223
!!!NIFC-islandoraID: nifc:213350
!!!URL-pdf-islandora: https://repozytorium.nifc.pl/islandora/object/nifc%3A213350/datastream/PDF/view
!!!URL-scan: https://polish.musicsources.pl/pl/lokalizacje/galeria/druki-muzyczne/16913 @EN{Scan on Polish Music Sources Website} @PL{Skany w portalu Dziedzictwo Muzyki Polskiej w otwartym dostępie}
!!!IIIF:
!!!ONB-nifc: UWAGA: str. 1-3
!!!AIN: 1 calto 1 organ 1 piano 2 soprn
!!!key: d
**kern	**dynam	**kern	**dynam	**kern	**text	**dynam	**kern	**text	**dynam	**kern	**text	**dynam
*part5	*	*part4	*part4	*part3	*part3	*part3	*part2	*part2	*part2	*part1	*part1	*part1
*staff5	*	*staff4	*	*staff3	*staff3	*	*staff2	*staff2	*	*staff1	*staff1	*
*I"Piano	*	*I"ORGUE.	*	*I"CONTRALTO.	*	*	*I"2o. DESSUS.	*	*	*I"1er. DESSUS.	*	*
*	*	*I'org	*	*I'CA	*	*	*I'2 D	*	*	*I'1 D	*	*
*Ipiano	*	*Iorgan	*	*Icalto	*	*	*Isoprn	*	*	*Isoprn	*	*
*ICklav	*	*ICklav	*	*ICvox	*	*	*ICvox	*	*	*ICvox	*	*
*clefF4	*	*clefG2	*	*clefG2	*	*	*clefG2	*	*	*clefG2	*	*
*k[b-]	*	*k[b-]	*	*k[b-]	*	*	*k[b-]	*	*	*k[b-]	*	*
*d:	*	*d:	*	*d:	*	*	*d:	*	*	*d:	*	*
*M4/4	*	*M4/4	*	*M4/4	*	*	*M4/4	*	*	*M4/4	*	*
*met(c)	*	*met(c)	*	*met(c)	*	*	*met(c)	*	*	*met(c)	*	*
=1	=1	=1	=1	=1	=1	=1	=1	=1	=1	=1	=1	=1
!	!	!LO:TX:a:t=Largo.	!	!	!	!	!	!	!	!LO:TX:a:t=Largo.	!	!
*	*above	*	*above	*	*	*	*	*	*	*	*	*
2DD\ 2D	p	(>2F</ 2A< 2d	<	1r	.	.	1r	.	.	1r	.	.
4DD\ 4D	.	4F</ 4A< 4d	.	.	.	.	.	.	.	.	.	.
4AA\	.	4E</) 4A< 4c	[[	.	.	.	.	.	.	.	.	.
=2	=2	=2	=2	=2	=2	=2	=2	=2	=2	=2	=2	=2
!	!	!	!LO:DY:a	!	!	!	!	!	!	!	!	!
4DD\ 4D	.	(>4F</ 4A< 4f	>	1r	.	.	1r	.	.	1r	.	.
4AA\	.	4A</ 4c 4e	.	.	.	.	.	.	.	.	.	.
4AA\	.	4E</ 4A< 4c	.	.	.	.	.	.	.	.	.	.
4AA\	.	4A</) 4c 4e	]]	.	.	.	.	.	.	.	.	.
=3	=3	=3	=3	=3	=3	=3	=3	=3	=3	=3	=3	=3
1DD;<	.	1D<; 1F< 1A< 1d	.	1r	.	.	1r	.	.	1r	.	.
=4	=4	=4	=4	=4	=4	=4	=4	=4	=4	=4	=4	=4
!	!	!	!	!	!	!LO:DY:a	!	!	!LO:DY:a	!	!	!LO:DY:a
2DD\ 2D	.	(>2F</ 2A< 2d	.	2d/	Mè-	p	2d/	Mè-	p	2d/	Mè-	p
4DD\ 4D	.	4F</ 4A< 4d	.	4d/	-re	.	4d/	-re	.	4d/	-re	.
4AA\	.	4E</) 4A< 4c	.	4c/	de	.	4c/	de	.	4c/	de	.
=5	=5	=5	=5	=5	=5	=5	=5	=5	=5	=5	=5	=5
4DD\ 4D	.	(>4F</ 4A< 4f	.	4d/	Dieu	.	4f/	Dieu	.	4f/	Dieu	.
4AAA\ 4AA	.	4A</ 4c 4e	.	4c/	pri-	.	4e/	pri-	.	4e/	pri-	.
4AAA\ 4AA	.	4E</ 4A< 4c	.	4A/	-e	.	4c/	-e	.	4c/	-e	.
4AAA\ 4AA	.	4A</) 4c 4e	.	4c/	pour	.	4e/	pour	.	4e/	pour	.
=6	=6	=6	=6	=6	=6	=6	=6	=6	=6	=6	=6	=6
1DD	.	1D< 1F< 1A< 1d	.	1d	nous	.	1d	nous	.	1d	nous	.
!LO:LB:g=original	!	!LO:LB:g=original	!	!LO:LB:g=original	!	!	!LO:LB:g=original	!	!	!LO:LB:g=original	!	!
=7	=7	=7	=7	=7	=7	=7	=7	=7	=7	=7	=7	=7
*	*	*	*below	*	*	*	*	*	*	*	*	*
2DD/ 2D	.	(>2d/ 2f	<	2d/	pro-	.	2f/	pro-	.	2f/	pro-	.
!	!	!	!	!	!	!LO:DY:a	!	!	!LO:DY:a	!	!	!LO:DY:a
4BBB-/ 4BB-	.	4d/ 4g	.	4d/	-tè-	<	4d/	-tè-	<	4g/	-tè-	<
4GGG/ 4GG	.	4d/) 4b-	[[	4d/	-ge	[[	4g/	-ge	[[	4b-\	-ge	[[
=8	=8	=8	=8	=8	=8	=8	=8	=8	=8	=8	=8	=8
1AAA; 1AA	.	1c#X; 1e 1a	.	1c#X^>;	nous	.	1e^>;	nous	.	1a^>;	nous	.
=9	=9	=9	=9	=9	=9	=9	=9	=9	=9	=9	=9	=9
!	!	!	!	!	!	!LO:DY:a	!	!	!LO:DY:a	!	!	!LO:DY:a
2AA:\ 2A:	.	2cn:/ 2f: 2cc:	f	2A/	Sain-	f	2f/	Sain-	f	2cc\	Sain-	f
4BB-\ 4B-	.	4d/ 4f 4dd	.	4B-/	-te	.	4f/	-te	.	4dd\	-te	.
4BB-\ 4B-	.	4d/ 4f 4dd	.	4B-/	Ma-	.	4f/	Ma-	.	4dd\	Ma-	.
=10	=10	=10	=10	=10	=10	=10	=10	=10	=10	=10	=10	=10
*	*	*^	*	*	*	*	*	*	*	*	*	*
[2C\ [2c	.	2g/	4f\	.	2c^>/	-ri-	.	2f^>/	-ri-	.	2g^>/	-ri-	.
.	.	.	(>8e\L	.	.	.	.	.	.	.	.	.	.
.	.	.	8d\J)	.	.	.	.	.	.	.	.	.	.
2C\] 2c]	.	2e/ 2g	2ryy	.	2c/	-e	.	2e/	-e	.	2g/	-e	.
*	*	*v	*v	*	*	*	*	*	*	*	*	*	*
=11	=11	=11	=11	=11	=11	=11	=11	=11	=11	=11	=11	=11
2F\ 2A	.	(>2c/ 2f 2cc	p >	2A/ 2a	pro-	.	2f/	pro-	.	2cc\	pro-	.
!	!	!	!	!	!	!LO:DY:a	!	!	!LO:DY:a	!	!	!LO:DY:a
4F\ 4A	.	4c/ 4f 4a	.	4f/	-tè-	>	4f/	-tè-	>	4a/	-tè-	>
4C\ 4B-	.	4c/) 4e 4g	]]	4c/	-ge	]]	4e/	-ge	]]	4g/	-ge	]]
=12	=12	=12	=12	=12	=12	=12	=12	=12	=12	=12	=12	=12
*	*	*^	*	*	*	*	*	*	*	*	*	*
2F\ 2A	.	2f/	2c\	.	2f/	nous	.	2f/	nous	.	2f/	nous	.
2r	.	4f/	2ryy	.	2r	.	.	2r	.	.	2r	.	.
.	.	4a/	.	.	.	.	.	.	.	.	.	.	.
!LO:PB:g=original	!	!LO:PB:g=original	!LO:PB:g=original	!	!LO:PB:g=original	!	!	!LO:PB:g=original	!	!	!LO:PB:g=original	!	!
*	*	*v	*v	*	*	*	*	*	*	*	*	*	*
=13	=13	=13	=13	=13	=13	=13	=13	=13	=13	=13	=13	=13
!	!	!	!	!	!	!	!	!	!	!	!	!LO:DY:a
2FF/ 2C 2A	.	2c/ 2f 2cc	sf	4f/	tu	.	4a/	tu	.	4cc/	tu	mf
.	.	.	.	4f/	nous	.	4a/	nous	.	4cc/	nous	.
4FF/ 4F	.	4c/ 4f 4a	.	4f/	vois	.	4f/	vois	.	4a/	vois	.
4C/	.	4c/ 4e 4g	>	4c/	à	.	4e/	à	.	4g/	à	.
=14	=14	=14	=14	=14	=14	=14	=14	=14	=14	=14	=14	=14
4D\	.	4d/ 4f	.	4d/	tes	.	4d/	tes	.	4f/	tes	.
4AA\ 4A	.	4c#X/ 4e	.	4c#X/	ge-	.	4e/	ge-	.	4e/	ge-	.
!	!	!	!	!	!	!LO:DY:a	!	!	!LO:DY:a	!	!	!LO:DY:a
2BB-\ 2B-	.	2d/	.	2d/	-noux	p	2d/	-noux	p	2d/	-noux	p
=15	=15	=15	=15	=15	=15	=15	=15	=15	=15	=15	=15	=15
2GGG/ 2GG	.	2B-/ 2e 2g	sf	2B-/	pri-	.	2e^>/	pri-	.	2g^>/	pri-	.
4AAA/ 4AA	.	4A/ 4d 4f	.	4A/	-e	p	4d/	-e	p	4f/	-e	p
!	!	!	!	!LO:TX:a:t=rall.	!	!LO:DY:a	!LO:TX:a:t=rall.	!	!LO:DY:a	!LO:TX:a:t=rall.	!	!LO:DY:a
!	!	!	!LO:HP:t=dim	!	!	!	!	!	!	!	!	!
4AAA/ 4AA	.	4A/ 4c#X 4e	>	4A/	pour	.	4c#X/	pour	.	4e/	pour	.
=16	=16	=16	=16	=16	=16	=16	=16	=16	=16	=16	=16	=16
1DD;<	.	1D; 1F 1A 1d	.	1d;	nous	.	1d;	nous	.	1d;	nous	.
=17	=17	=17	=17	=17	=17	=17	=17	=17	=17	=17	=17	=17
!	!	!	!	!	!	!LO:DY:a	!	!	!LO:DY:a	!	!	!LO:DY:a
2D\ 2d	.	2f\ 2a 2dd	f	2f/	Vier-	f	2a/	Vier-	f	2dd\	Vier-	f
4D^<\ 4d	.	4f^\ 4a 4dd	.	4f/	-ge	.	4a/	-ge	.	4dd\	-ge	.
4E^<\ 4e	.	4g^\ 4cc	.	4e/	du	.	4g/	du	.	4cc\	du	.
=18	=18	=18	=18	=18	=18	=18	=18	=18	=18	=18	=18	=18
4D^<\ 4d	.	4f^\ 4a 4ff	.	4d/	Ciel	.	4a/	Ciel	.	4ff\	Ciel	.
4AA^<\ 4A	.	4e^\ 4a 4cc 4ee	.	4a/	pri-	.	4a/	pri-	.	4ee\	pri-	.
4AA^<\ 4A	.	4e^\ 4a 4cc	.	4a/	-e	.	4a/	-e	.	4cc\	-e	.
4AA^<\ 4A	.	4e^\ 4a 4cc 4ee	.	4a/	pour	.	4cc/	pour	.	4ee\	pour	.
!LO:LB:g=original	!	!LO:LB:g=original	!LO:LB:g=original	!LO:LB:g=original	!	!	!LO:LB:g=original	!	!	!LO:LB:g=original	!	!
=19	=19	=19	=19	=19	=19	=19	=19	=19	=19	=19	=19	=19
2DD^/ 2D	.	2f^\ 2a 2dd	.	[1f	nous	.	[1a	nous	.	[1dd	nous	.
32qqA/LLL	.	32qqa/LLL	.	.	.	.	.	.	.	.	.	.
32qqB-/	.	32qqbn/	.	.	.	.	.	.	.	.	.	.
!	!	!LO:TX:b:t=marcato.	!	!	!	!	!	!	!	!	!	!
32qqc#X/JJJ	.	32qqcc#X/JJJ	.	.	.	.	.	.	.	.	.	.
4d\	.	4dd\	.	.	.	.	.	.	.	.	.	.
4A\	.	4a/	.	.	.	.	.	.	.	.	.	.
=20	=20	=20	=20	=20	=20	=20	=20	=20	=20	=20	=20	=20
4F\	.	4f/	.	2f/]	.	.	2a/]	.	.	2dd\]	.	.
4D\	.	4d/	.	.	.	.	.	.	.	.	.	.
4AA/	.	12A/L	.	2r	.	.	2r	.	.	2r	.	.
.	.	12A/ 12a	<	.	.	.	.	.	.	.	.	.
.	.	12Bn/J 12bn	.	.	.	.	.	.	.	.	.	.
4AA\ 4A	.	12c#X/L 12cc#X	.	.	.	.	.	.	.	.	.	.
.	.	12d/ 12dd	.	.	.	.	.	.	.	.	.	.
.	.	12e/J 12ee	[[	.	.	.	.	.	.	.	.	.
=21	=21	=21	=21	=21	=21	=21	=21	=21	=21	=21	=21	=21
!	!	!	!	!	!	!LO:DY:a	!	!	!LO:DY:a	!	!	!LO:DY:a
2DD/ 2D	.	2f\ 2a 2dd 2ff	ff	2d/	Pro-	f	2a/	Pro-	f	2ff\	Pro-	f
4D\ 4d	.	4f\ 4a 4dd 4ff	.	4d/	-tè-	.	4a/	-tè-	.	4ff\	-tè-	.
4AA\ 4A	.	4e\ 4a 4cc#X 4ee	.	4c#X/	-ge	.	4a/	-ge	.	4ee\	-ge	.
=22	=22	=22	=22	=22	=22	=22	=22	=22	=22	=22	=22	=22
4D\ 4d	.	4f\ 4a 4dd 4ff	.	4d/	nous	.	4a/	nous	.	4ff\	nous	.
4BB-\ 4B-	.	4f\ 4dd	.	4B-/	Sain-	.	4b-/	Sain-	.	4dd\	Sain-	.
4..GG\ 4..G	.	4..e\ 4..b- 4..dd 4..ee	.	4..g^/	-te	.	4..b-^/	-te	.	4..ee^\	-te	.
16GG\ 16G	.	16e\ 16b- 16dd 16ee	.	16g/	Ma-	.	16b-/	Ma-	.	16dd\	Ma-	.
=23	=23	=23	=23	=23	=23	=23	=23	=23	=23	=23	=23	=23
2AA\ 2A	.	2e\ 2a 2cc#X 2ee	.	1a	-ri-	.	1a	-ri-	.	1cc#X	-ri-	.
!	!	!	!	!	!LO:LB:g=original	!	!	!LO:LB:g=original	!	!	!LO:LB:g=original	!
32qqE/LLL	.	32qqee/LLL	f	.	.	.	.	.	.	.	.	.
32qqF#X/	.	32qqff#X/	.	.	.	.	.	.	.	.	.	.
32qqG#X/JJJ	.	32qqgg#X/JJJ	.	.	.	.	.	.	.	.	.	.
4A^\	.	4aa^\	.	.	.	.	.	.	.	.	.	.
4E^\	.	4ee^\	.	.	.	.	.	.	.	.	.	.
!LO:LB:g=original	!	!LO:LB:g=original	!LO:LB:g=original	!	!	!	!	!	!	!	!	!
=24	=24	=24	=24	=24	=24	=24	=24	=24	=24	=24	=24	=24
4C#X^/	.	4cc#X^/	.	2a/	-e	.	2a/	-e	.	2a\	-e	.
4AA^/	.	4a^/	.	.	.	.	.	.	.	.	.	.
(8AA/L	.	4..a\ 4..aa	p >	2r	.	.	2r	.	.	2r	.	.
8GG#X/J	.	.	.	.	.	.	.	.	.	.	.	.
8AA/L	.	.	.	.	.	.	.	.	.	.	.	.
8GGn/J)	.	.	.	.	.	.	.	.	.	.	.	.
.	.	16b-\ 16bb-	]	.	.	.	.	.	.	.	.	.
=25	=25	=25	=25	=25	=25	=25	=25	=25	=25	=25	=25	=25
*	*	*^	*	*	*	*	*	*	*	*	*	*
*ped	*	*	*	*	*	*	*	*	*	*	*	*	*
[1FF	.	2ff/ 2ccc	4a\	p	1r	.	.	1r	.	.	1r	.	.
.	.	.	8g\L	.	.	.	.	.	.	.	.	.	.
.	.	.	8a\J	.	.	.	.	.	.	.	.	.	.
.	.	2ddd/	4ff\	.	.	.	.	.	.	.	.	.	.
.	.	.	8ee\L	.	.	.	.	.	.	.	.	.	.
.	.	.	8dd\J	.	.	.	.	.	.	.	.	.	.
=26	=26	=26	=26	=26	=26	=26	=26	=26	=26	=26	=26	=26	=26
2FF/]	.	2ccc/	2a\ 2cc	.	2r	.	.	2r	.	.	2r	.	.
!	!	!	!	!	!	!	!LO:DY:a	!	!	!LO:DY:a	!	!	!LO:DY:a
2r	.	2r	2ryy	.	4f/	Tu	p	4f/	Tu	p	4a/	Tu	p
.	.	.	.	.	4f/	nous	.	4f/	nous	.	4a/	nous	.
*	*	*v	*v	*	*	*	*	*	*	*	*	*	*
=27	=27	=27	=27	=27	=27	=27	=27	=27	=27	=27	=27	=27
2AA\ 2A	.	2c/ 2f 2cc	fp	4.f^>/	vois	.	4.a^>/	vois	.	4.cc^>/	vois	.
.	.	.	.	8f/	à	.	8a/	à	.	8cc/	à	.
4F\ 4A	.	4c/ 4f 4a	.	4f/	tes	.	4f/	tes	.	4a/	tes	.
4C\ 4B-	.	4c/ 4e 4g	.	4c/	ge-	.	4e/	ge-	.	4g/	ge-	.
=28	=28	=28	=28	=28	=28	=28	=28	=28	=28	=28	=28	=28
4F\ 4A	.	(4c/ 4f	<	4f/	-noux	.	4f/	-noux	.	4f/	-noux	.
4F\ 4A	.	4f/ 4a	.	4f/	Sain-	.	4f/	Sain-	.	4a/	Sain-	.
4F\ 4A	.	4f/ 4a	.	4f/	-te	.	4f/	-te	.	4a/	-te	.
4F\ 4G	.	8e/L 8b-	.	8e/L	Ma-	.	4g/	Ma-	.	4b-/	Ma-	.
.	.	8d/J)	[[	8d/J	.	.	.	.	.	.	.	.
=29	=29	=29	=29	=29	=29	=29	=29	=29	=29	=29	=29	=29
2F\ 2A	.	2c/ 2f 2cc	.	2c^>/	-ri-	.	2a^>/	-ri-	.	2cc^>/	-ri-	.
4F\	.	4c/ 4f 4a	.	4f/	-e	.	4f/	-e	.	4a/	-e	.
4C\ 4B-	.	4c/ 4e 4g	.	4e/	pri-	.	4e/	pri-	.	4g/	pri-	.
!LO:LB:g=original	!	!LO:LB:g=original	!	!LO:LB:g=original	!	!	!LO:LB:g=original	!	!	!LO:LB:g=original	!	!
=30	=30	=30	=30	=30	=30	=30	=30	=30	=30	=30	=30	=30
*^	*	*^	*	*	*	*	*	*	*	*	*	*
!	!	!	!	!	!	!	!	!	!	!	!	!	!	!LO:HP:t=dim.
4A\	4F\	.	(4f/	4c\	.	4d/	-e	.	4d/	-e	.	4f/	-e	>
8A/L	4AA\	.	4e/	4c#X\	.	4c#X/	pour	.	4c#X/	pour	.	4e/	pour	.
8G/J	.	.	.	.	.	.	.	.	.	.	.	.	.	.
4F/	4D\	.	4d/)	4d\	.	4d/	nous	.	4d/	nous	.	4d/	nous	.
8r	4ryy	.	8r	4ryy	.	8r	.	.	8r	.	.	8r	.	.
!	!	!	!	!	!	!	!	!LO:DY:a	!	!	!LO:DY:a	!	!	!LO:DY:a
8FF/ 8F	.	.	8d/ 8dd	.	sf	8f/	pri-	f	8a/	pri-	f	8dd\	pri-	f
*v	*v	*	*	*	*	*	*	*	*	*	*	*	*	*
*	*	*v	*v	*	*	*	*	*	*	*	*	*	*
=31	=31	=31	=31	=31	=31	=31	=31	=31	=31	=31	=31	=31
2GG\ 2G	.	2e/ 2g 2b- 2ee	f	2g^>/	-e	.	2b-^>/	-e	.	2ee^\	-e	.
4AA\ 4A	.	4f/ 4dd	.	(4f/	pour	.	2a/	pour	.	4dd\	.	.
4AA\ 4A	.	4e/ 4a 4cc#X	.	4e/)	.	.	.	.	.	4cc#X\	pour	.
=32	=32	=32	=32	=32	=32	=32	=32	=32	=32	=32	=32	=32
1DD 1D	.	1d 1f 1a 1dd	.	1f	nous	.	1a	nous	.	1dd	nous	.
=33	=33	=33	=33	=33	=33	=33	=33	=33	=33	=33	=33	=33
!	!	!	!LO:DY:a	!	!	!	!	!	!	!	!	!
2r	.	2ff/ 2fff	f	1r	.	.	1r	.	.	1r	.	.
(32qqf>/LLL	.	.	.	.	.	.	.	.	.	.	.	.
32qqg>/	f	.	.	.	.	.	.	.	.	.	.	.
!LO:TX:a:B:t=m.g.	!	!	!	!	!	!	!	!	!	!	!	!
32qqa>/JJJ	.	.	.	.	.	.	.	.	.	.	.	.
4b->\)	.	2ddd/	.	.	.	.	.	.	.	.	.	.
4dd>\	.	.	.	.	.	.	.	.	.	.	.	.
=34	=34	=34	=34	=34	=34	=34	=34	=34	=34	=34	=34	=34
2a>\	f	2cc/ 2ccc	.	1r	.	.	1r	.	.	1r	.	.
!	!	!	!	!LO:LB:g=original	!	!	!LO:LB:g=original	!	!	!LO:LB:g=original	!	!
(32qqc/LLL	.	.	.	.	.	.	.	.	.	.	.	.
32qqd/	.	.	.	.	.	.	.	.	.	.	.	.
32qqe/JJJ	.	.	.	.	.	.	.	.	.	.	.	.
4f\)	.	4a\ 4aa	.	.	.	.	.	.	.	.	.	.
8e\L	.	8g\L 8gg	.	.	.	.	.	.	.	.	.	.
8d\J	.	8f\J 8ff	.	.	.	.	.	.	.	.	.	.
!LO:LB:g=original	!	!LO:LB:g=original	!	!	!	!	!	!	!	!	!	!
=35	=35	=35	=35	=35	=35	=35	=35	=35	=35	=35	=35	=35
*	*	*^	*	*	*	*	*	*	*	*	*	*
4e\	.	4g\ 4gg	2ryy	.	1r	.	.	1r	.	.	1r	.	.
8d\L	.	8f\L 8ff	.	.	.	.	.	.	.	.	.	.	.
8c\J	.	8e\J 8ee	.	.	.	.	.	.	.	.	.	.	.
2G\	.	2ddT/	2f\ 2bn	sfz	.	.	.	.	.	.	.	.	.
*	*	*v	*v	*	*	*	*	*	*	*	*	*	*
32qqG/LLL	.	.	.	.	.	.	.	.	.	.	.	.
32qqF#X/	.	.	.	.	.	.	.	.	.	.	.	.
32qqG/JJJ	.	.	.	.	.	.	.	.	.	.	.	.
=36	=36	=36	=36	=36	=36	=36	=36	=36	=36	=36	=36	=36
4c\	.	4e/ 4cc	.	4r	.	.	4r	.	.	4r	.	.
!	!	!	!	!	!	!	!	!	!	!	!	!LO:DY:a
4C/	.	4r	.	4c/	Du	.	4cc\	Du	.	4cc\	Du	f
2r	.	4c/ 4cc	.	4c/	Dieu-	.	4cc\	Dieu-	.	4cc\	Dieu-	.
.	.	4c/ 4cc	.	4c/	-qu'a-	.	4cc\	-qu'a-	.	4cc\	-qu'a-	.
=37	=37	=37	=37	=37	=37	=37	=37	=37	=37	=37	=37	=37
2CC/ 2C	.	2e/ 2g 2cc 2ee	ff	2c/	-do-	.	2g/	-do-	.	2ee\	-do-	.
2GG/ 2G	.	2d/ 2g 2b-X 2dd	.	2g^>/	-re	.	2b-^>/	-re	.	2dd^\	-re	.
=38	=38	=38	=38	=38	=38	=38	=38	=38	=38	=38	=38	=38
8C\L 8c	.	4e\ 4g 4cc 4ee	.	4g/	ma	.	(8cc\L	ma	.	4ee\	ma	.
8BB-\J 8B-	.	.	.	.	.	.	8b-\J)	.	.	.	.	.
4AA\ 4A	.	4f\ 4cc 4ff	.	4f/	pa-	.	4a/	pa-	.	4ff\	pa-	.
4.BB-^\ 4.B-	.	4.f^\ 4.b- 4.dd	.	2B-^>/	-tri-	.	2f^>/	-tri-	.	2dd^\	-tri-	.
8BB-\ 8B-	.	8f\ 8b- 8dd	.	.	.	.	.	.	.	.	.	.
=39	=39	=39	=39	=39	=39	=39	=39	=39	=39	=39	=39	=39
2BB-\ 2B-	.	[2f/ [>2b- [2dd	f	2B-/	-e	.	2f/	-e	.	2dd\	-e	.
4BBB-/ 4BB-	.	4f/] 4b-] 4dd]	.	2r	.	.	2r	.	.	2r	.	.
4r	.	4r	.	.	.	.	.	.	.	.	.	.
=40	=40	=40	=40	=40	=40	=40	=40	=40	=40	=40	=40	=40
*	*	*^	*	*	*	*	*	*	*	*	*	*
!	!	!	!	!	!	!	!LO:DY:a	!	!	!LO:DY:a	!	!	!LO:DY:a
2FF/ 2F	.	(2a/ 2cc	4c\	p	2f/	VIens	p	2a^>/	Viens	p	2cc^\	Viens	p
.	.	.	8d\L	.	.	.	.	.	.	.	.	.	.
!	!	!LO:TX:b:t=più lento.	!	!	!	!	!	!	!	!	!	!	!
.	.	.	8e\J	.	.	.	.	.	.	.	.	.	.
4DD/ 4D	.	2ryy	4f\ 4a	.	4f/	im-	.	4a/	im-	.	4a/	im-	.
.	.	.	8qcc/	.	.	.	.	.	.	.	8qcc/	.	.
4BBB-/ 4BB-	.	.	4d\) 4f 4b-	.	4d/	-plo-	.	4f^>/	-plo-	.	4b-^\	-plo-	.
!LO:LB:g=original	!	!LO:LB:g=original	!LO:LB:g=original	!	!LO:LB:g=original	!	!	!LO:LB:g=original	!	!	!LO:LB:g=original	!	!
*	*	*v	*v	*	*	*	*	*	*	*	*	*	*
=41	=41	=41	=41	=41	=41	=41	=41	=41	=41	=41	=41	=41
!	!	!	!	!	!	!LO:DY:a	!	!	!LO:DY:a	!	!	!LO:DY:a
2CC/ 2C	.	2c/ 2f 2a	.	2c/	-rer	<	2f/	-rer	<	2a/	-rer	<
!	!	!	!	!	!	!LO:DY:a	!	!	!LO:DY:a	!	!	!LO:DY:a
4.CC/ 4.C	.	4.c/ 4.e 4.g	.	4.c/	le	[ >	4.e/	le	[ >	4.g/	le	[ >
8CC/ 8C	.	8B-/ 8e 8g	.	8B-/	cour-	.	8e/	cour-	.	8g/	cour-	.
=42	=42	=42	=42	=42	=42	=42	=42	=42	=42	=42	=42	=42
*	*	*	*above	*	*	*	*	*	*	*	*	*
2FF/ 2F	.	2A/ 2f	<	2A/	-roux	]	2f/	-roux	]	2f/	-roux	]
4DD/ 4D	.	4A/ 4d 4f	.	2r	.	.	2r	.	.	2r	.	.
4BBB-/ 4BB-	.	4B-/ 4d 4g	[[	.	.	.	.	.	.	.	.	.
=43	=43	=43	=43	=43	=43	=43	=43	=43	=43	=43	=43	=43
*	*	*^	*	*	*	*	*	*	*	*	*	*
!	!	!	!	!LO:DY:a	!	!	!	!	!	!	!	!	!
2AAA\ 2AA	.	2d^/ 2f 2a	2A/	sf	1r	.	.	1r	.	.	1r	.	.
!	!	!	!	!LO:DY:a	!	!	!	!	!	!	!	!	!
2AAA\ 2AA	.	2c#X^/ 2e 2a	2G/ 2A	sf	.	.	.	.	.	.	.	.	.
*	*	*v	*v	*	*	*	*	*	*	*	*	*	*
=44	=44	=44	=44	=44	=44	=44	=44	=44	=44	=44	=44	=44
!	!	!LO:TX:b:t=élargissant	!	!	!	!LO:DY:a	!	!	!LO:DY:a	!LO:TX:a:t=élargissant.	!	!LO:DY:a
2DDD/ 2DD	.	2d/ 2f 2a 2dd	ff	2d/	Mè-	f	2f/	Mè-	f	2dd\	Mè-	f
4BBB-/ 4BB-	.	4f/ 4b- 4dd	.	4B-/	-re	.	4f/	-re	.	4dd\	-re	.
4FF/ 4F	.	4f/ 4a 4cc	.	4f/	de	.	4a/	de	.	4cc\	de	.
=45	=45	=45	=45	=45	=45	=45	=45	=45	=45	=45	=45	=45
4DD/ 4D	.	4f/ 4a 4ff	.	4d/	Dieu	.	4a/	Dieu	.	4ff\	Dieu	.
4AAA:/ 4AA: 4A:	.	4e/ 4a 4cc 4ee	.	4a/	pri-	.	4cc\	pri-	.	4ee\	pri-	.
4AAA:/ 4AA: 4A:	.	4c/ 4a 4cc	.	4a/	-e	.	4cc\	-e	.	4cc\	-e	.
4AAA:/ 4AA: 4A:	.	4e/ 4a 4cc 4ee	.	4a/	pour	.	4cc\	pour	.	4ee\	pour	.
=46	=46	=46	=46	=46	=46	=46	=46	=46	=46	=46	=46	=46
1DD;< 1D	.	1d^; 1f 1a 1dd	sf	1d;	nous	.	1f;	nous	.	1dd;	nous	.
==	==	==	==	==	==	==	==	==	==	==	==	==
*-	*-	*-	*-	*-	*-	*-	*-	*-	*-	*-	*-	*-
!!!RDF**kern: > = above
!!!RDF**kern: < = below
!!!system-decoration: [(s1,s2,s3)][(s4,s5)]
!!!ENC: Andrzej Gręziak
!!!END: 2022-08-06
!!!ENC: Julita Ruszuk
!!!END: 2022-09-02
!!!YEC: Copyright 2022 Narodowy Instytut Fryderyka Chopina (https://polishscores.org)
!!!YEM: License CC-BY-4.0 (https://creativecommons.org/licenses/by/4.0)
